woof-CE/woof-code/rootfs-skeleton/usr/share/pixmaps/puppy/puppy_save.svg

<svg version="1.2" xmlns="http://www.w3.org/2000/svg" viewBox="0 0 100 100" width="100" height="100"><style>.a{fill:#90b1de;stroke:#2c3d60;stroke-width:1.5}.b{fill:#4e7ec2}.c{fill:#999;stroke:#555;stroke-width:2}.d{opacity:.7;fill:#f00}.e{fill:#eee}.f{fill:#2c3d60}.g{fill:none;stroke:#bbb;stroke-width:2}</style><path class="a" d="m3 88v-81c0-3 1-4 4-4h86c3 0 4 2 4 5v85c0 2 0 4-4 4h-81z"/><path class="b" d="m6 6v81l7 7h81v-88z"/><path class="c" d="m28 62c-4 0-4 2-4 4v31h52v-31c0-2-1-4-4-4zm10 4c7 0 6 3 6 3v18c0 0 1 3-6 3-6 0-5-3-5-3v-18c0 0-1-3 5-3z"/><path fill-rule="evenodd" class="d" d="m17 4h66v10h-66z"/><path fill-rule="evenodd" class="e" d="m17 14h66v42h-66z"/><path fill-rule="evenodd" class="f" d="m8 9h6v6h-6z"/><path fill-rule="evenodd" class="g" d="m21 47h58m-58-12h58m-58-11h58"/></svg>

<?xml version="1.0" encoding="UTF-8"?>
<svg xmlns="http://www.w3.org/2000/svg" version="1.1" height="100" width="100">

  <path style="fill:#90B1DE;stroke:#2C3D60;stroke-width:1.5px" d="M 3,88 3,7 C 3,4 4,3 7,3 l 86,0 c 3,0 4,2 4,5 l 0,85 c 0,2 0,4 -4,4 l -81,0 z"/>
  <path style="fill:#4E7EC2" d="m 6,6 0,81 7,7 81,0 0,-88 z"/>
  <path style="fill:#999999;stroke:#555555;stroke-width:2px" d="M 28 62 C 24 62 24 64 24 66 L 24 97 L 76 97 L 76 66 C 76 64 75 62 72 62 L 28 62 z M 38 66 C 45 66 44 69 44 69 L 44 87 C 44 87 45 90 38 90 C 32 90 33 87 33 87 L 33 69 C 33 69 32 66 38 66 z "/>
  <rect style="fill:#ff0000;fill-opacity:0.7" width="66" height="10" x="17" y="4"/>
  <rect style="fill:#eeeeee;" width="66" height="42" x="17" y="14"/>
  <rect style="fill:#2C3D60;" width="6" height="6" x="8" y="9"/>
  <path style="fill:none;stroke:#bbbbbb;stroke-width:2px" d="m 21,47 58,0 M 21,35 79,35 M 21,24 79,24"/>

  <path style="fill:none;stroke:#222222;stroke-width:3;stroke-linecap:round;" d="m 44,65 c 1,5 12,7 17,2 3,-4 3,-8 3,-8 0,0 3,5 10,5 10,0 10,-11 10,-11"/>
  <g style="fill:#222222;stroke:none;">
    <path d="m 26,28 c -8,0 -15,7 -15,16 0,8 6,16 15,16 10,0 17,-7 17,-16 l -4,0 c 0,3 -3,7 -8,7 -5,0 -7,-4 -7,-8 0,-4 4,-8 7,-8 5,0 8,4 8,8 l 0,1 4,0 C 43,35 37,28 26,28 z"/>
    <ellipse cx="78" cy="30" rx="9" ry="9"/>
    <path d="m 49,49 20,-6 c 2,-1 4,-1 3,3 l -7,13 c -1,2 -2,2 -3,0 L 49,52 c -3,-1 0,-3 0,-3 z"/>
  </g>

</svg>
